X:1
T:Title
%%score { ( 1 3 ) | ( 2 4 ) }
L:1/8
M:3/4
K:Bb
V:1 treble nm="Grand Piano"
V:3 treble 
V:2 bass 
V:4 bass 
V:1
 z2 z2[Q:1/4=100] [DF][B,D] | [EG]2 [DF]2 [DF][B,D] | [EG]2 F2 AB | F2 F2 GF |[M:2/4] [DF]4 | %5
[M:1/4] [DF][B,D] |[M:3/4] [_DG]2 [=DF]2 [DF][B,D] | [_DG]2 [=DF]2 [CA][B,B] | %8
 [=Ec]2 [EG]2 [DB][CA] |[M:2/4] [A,F]4 |[M:1/4] BA |[M:3/4] G2 G2 z2 | [DF]2 D2 FF | B2 d2 z2 | %14
[M:2/4] c4 |[M:1/4] Bc |[M:3/4] d2 d2 z2 | .c2 z2 z2 | %18
 z2 z2 .F2[Q:1/4=98][Q:1/4=97][Q:1/4=95][Q:1/4=94][Q:1/4=92][Q:1/4=91][Q:1/4=89][Q:1/4=88][Q:1/4=86][Q:1/4=84][Q:1/4=83][Q:1/4=81][Q:1/4=80][Q:1/4=78][Q:1/4=77] | %19
[M:2/4] [B,DF]4 |] %20
V:2
 z2 z2 [B,,B,][B,,F,] | [B,,B,]2 [B,,B,]2 [B,,B,][B,,F,] | [C,A,]2 [F,A,E]2 [F,CE][G,B,D] | %3
 [A,CE]2 [B,D]2 [E,B,E][F,A,E] |[M:2/4] [B,,B,]4 |[M:1/4] [B,,B,][B,,F,] | %6
[M:3/4] [B,,=E,]2 [B,,F,]2 [B,,B,][B,,F,] | [B,,=E,]2 [B,,F,]2 [_E,F,][D,F,] | %8
 [C,G,]2 [C,C]2 [C,=E,][C,E,] |[M:2/4] [F,,F,]4 |[M:1/4] z2 | %11
[M:3/4] [E,B,E][E,B,] [E,B,E][E,B,] [E,G,E][E,B,E] | [B,,B,]2 [B,,F,B,]2 z2 | %13
 [B,,F,][B,,F,] [B,,B,][B,,B,] [C,G,][=E,C] |[M:2/4] [F,A,F]4 |[M:1/4] z2 | %16
[M:3/4] [B,,F,][B,,F,] [D,B,][F,B,][K:treble] [B,G][B,F] | [E,B,]2 [E,B,E]2 [E,B,_D][=E,B,D] | %18
 [F,B,D]2 [F,B,D]2 [A,C]/B,/F, |[M:2/4] B,,4 |] %20
V:3
 x6 | x6 | x6 | x6 |[M:2/4] x4 |[M:1/4] x2 |[M:3/4] x6 | x6 | x6 |[M:2/4] x4 |[M:1/4] x2 | %11
[M:3/4] z E z E BG | x6 | DD FF [=Ec][GB] |[M:2/4] x4 |[M:1/4] x2 |[M:3/4] DD FF ed | %17
 G-[GB] G2 GG | F2 F2 z/ D/[CEF] |[M:2/4] x4 |] %20
V:4
 x6 | x6 | x6 | x6 |[M:2/4] x4 |[M:1/4] x2 |[M:3/4] x6 | x6 | x6 |[M:2/4] x4 |[M:1/4] x2 | %11
[M:3/4] x6 | x6 | x6 |[M:2/4] x4 |[M:1/4] x2 |[M:3/4] x4[K:treble] x2 | x6 | z2 z2 .F,2 | %19
[M:2/4] x4 |] %20

